X:138
T:La Gigue Caroline
C:Philippe Murphy
M:6/8
L:1/8
R:jig
K:G
D |: G3 AGA | B2g edB | A3 (3B^cd g | edB AGD |
G3 AGA | B2g edB | A3 cBA |1 AGF G2D :|2 AGF G2d :|
ged ged | (3B^cd g edB | A3 ABc | BAG EDE |
ged ged | (3B^cd g edB | A3 cBA | AGF G2d |
ged ged | (3B^cd g edB | A3 ABc | BAG EDE |
G3 AGA | B2g edB | A3 cBA | AGF G2D ||
